embed/imgs/speaker.svg

<?xml version="1.0" encoding="UTF-8" standalone="no"?>
<svg
   xmlns:dc="http://purl.org/dc/elements/1.1/"
   xmlns:cc="http://creativecommons.org/ns#"
   xmlns:rdf="http://www.w3.org/1999/02/22-rdf-syntax-ns#"
   xmlns:svg="http://www.w3.org/2000/svg"
   xmlns="http://www.w3.org/2000/svg"
   xmlns:sodipodi="http://sodipodi.sourceforge.net/DTD/sodipodi-0.dtd"
   xmlns:inkscape="http://www.inkscape.org/namespaces/inkscape"
   version="1.1"
   id="svg4659"
   height="45"
   width="45"
   sodipodi:docname="speaker.svg"
   inkscape:version="0.92.2 5c3e80d, 2017-08-06">
  <sodipodi:namedview
     pagecolor="#4cc5a0"
     bordercolor="#666666"
     borderopacity="1"
     objecttolerance="10"
     gridtolerance="10"
     guidetolerance="10"
     inkscape:pageopacity="0"
     inkscape:pageshadow="2"
     inkscape:window-width="1868"
     inkscape:window-height="1049"
     id="namedview8"
     showgrid="false"
     fit-margin-top="0"
     fit-margin-left="0"
     fit-margin-right="0"
     fit-margin-bottom="0"
     inkscape:zoom="13.350176"
     inkscape:cx="0.054475841"
     inkscape:cy="20.133193"
     inkscape:window-x="0"
     inkscape:window-y="0"
     inkscape:window-maximized="0"
     inkscape:current-layer="svg4659" />
  <defs
     id="defs4661" />
  <metadata
     id="metadata4664">
    <rdf:RDF>
      <cc:Work
         rdf:about="">
        <dc:format>image/svg+xml</dc:format>
        <dc:type
           rdf:resource="http://purl.org/dc/dcmitype/StillImage" />
        <dc:title></dc:title>
      </cc:Work>
    </rdf:RDF>
  </metadata>
  <g
     transform="matrix(1.8,0,0,1.8,0,-1849.252)"
     id="layer1">
    <path
       id="rect4139"
       transform="translate(0,1027.3622)"
       d="M 0,0 V 25 H 25 V 0 Z M 16.955078,2.5175781 C 17.381507,2.5360023 17.80574,2.6612 18.1875,2.890625 v 19.21875 c -1.018294,0.6133 -2.33364,0.478112 -3.207031,-0.429687 l -4.298828,-4.46875 H 8.7832031 c -1.08537,0 -1.9707031,-0.920529 -1.9707031,-2.048829 V 9.8359375 c 0,-1.1282 0.8853331,-2.046875 1.9707031,-2.046875 h 1.8984379 l 4.298828,-4.4707031 c 0.54555,-0.567125 1.263894,-0.8314883 1.974609,-0.8007813 z"
       style="color:#000000;clip-rule:nonzero;display:inline;overflow:visible;visibility:visible;opacity:1;isolation:auto;mix-blend-mode:normal;color-interpolation:sRGB;color-interpolation-filters:linearRGB;solid-color:#000000;solid-opacity:1;fill:#000000;fill-opacity:1;fill-rule:evenodd;stroke:none;stroke-width:0;stroke-linecap:butt;stroke-linejoin:miter;stroke-miterlimit:4;stroke-dasharray:none;stroke-dashoffset:0;stroke-opacity:1;color-rendering:auto;image-rendering:auto;shape-rendering:auto;text-rendering:auto;enable-background:accumulate"
       inkscape:connector-curvature="0" />
    <path
       id="rect4574"
       d="m 18.187674,1030.2531 c -1.018026,-0.6118 -2.333715,-0.479 -3.206595,0.4284 l -4.299344,4.4691 H 8.7828593 c -1.0853708,0 -1.9705331,0.9201 -1.9705331,2.0483 v 5.3258 c 0,1.1283 0.8851623,2.0484 1.9705331,2.0484 h 1.8988757 l 4.299344,4.4693 c 0.873391,0.9078 2.188301,1.0415 3.206595,0.4282 z"
       style="fill:none;fill-opacity:1;stroke:#ffffff;stroke-width:1.5;stroke-miterlimit:4;stroke-dasharray:none;stroke-opacity:1"
       inkscape:connector-curvature="0" />
  </g>
</svg>

<?xml version="1.0" encoding="UTF-8" standalone="no"?>
<!-- Created with Inkscape (http://www.inkscape.org/) -->

<svg
   xmlns:dc="http://purl.org/dc/elements/1.1/"
   xmlns:cc="http://creativecommons.org/ns#"
   xmlns:rdf="http://www.w3.org/1999/02/22-rdf-syntax-ns#"
   xmlns:svg="http://www.w3.org/2000/svg"
   xmlns="http://www.w3.org/2000/svg"
   xmlns:sodipodi="http://sodipodi.sourceforge.net/DTD/sodipodi-0.dtd"
   xmlns:inkscape="http://www.inkscape.org/namespaces/inkscape"
   width="25"
   height="25"
   id="svg4659"
   version="1.1"
   inkscape:version="0.91 r13725"
   sodipodi:docname="speaker.svg">
  <defs
     id="defs4661" />
  <sodipodi:namedview
     id="base"
     pagecolor="#de43da"
     bordercolor="#666666"
     borderopacity="1.0"
     inkscape:pageopacity="0"
     inkscape:pageshadow="2"
     inkscape:zoom="19.289873"
     inkscape:cx="-2.0603844"
     inkscape:cy="14.079113"
     inkscape:document-units="px"
     inkscape:current-layer="layer1"
     showgrid="false"
     inkscape:window-width="1918"
     inkscape:window-height="1040"
     inkscape:window-x="0"
     inkscape:window-y="19"
     inkscape:window-maximized="0">
    <sodipodi:guide
       position="0,0"
       orientation="0,25"
       id="guide4151" />
    <sodipodi:guide
       position="25,0"
       orientation="-25,0"
       id="guide4153" />
    <sodipodi:guide
       position="25,25"
       orientation="0,-25"
       id="guide4155" />
    <sodipodi:guide
       position="0,25"
       orientation="25,0"
       id="guide4157" />
  </sodipodi:namedview>
  <metadata
     id="metadata4664">
    <rdf:RDF>
      <cc:Work
         rdf:about="">
        <dc:format>image/svg+xml</dc:format>
        <dc:type
           rdf:resource="http://purl.org/dc/dcmitype/StillImage" />
        <dc:title></dc:title>
      </cc:Work>
    </rdf:RDF>
  </metadata>
  <g
     inkscape:label="Layer 1"
     inkscape:groupmode="layer"
     id="layer1"
     transform="translate(0,-1027.3622)">
    <path
       style="color:#000000;clip-rule:nonzero;display:inline;overflow:visible;visibility:visible;opacity:1;isolation:auto;mix-blend-mode:normal;color-interpolation:sRGB;color-interpolation-filters:linearRGB;solid-color:#000000;solid-opacity:1;fill:#000000;fill-opacity:1;fill-rule:evenodd;stroke:none;stroke-width:0;stroke-linecap:butt;stroke-linejoin:miter;stroke-miterlimit:4;stroke-dasharray:none;stroke-dashoffset:0;stroke-opacity:1;color-rendering:auto;image-rendering:auto;shape-rendering:auto;text-rendering:auto;enable-background:accumulate"
       d="M 0 0 L 0 25 L 25 25 L 25 0 L 0 0 z M 16.955078 2.5175781 C 17.381507 2.5360023 17.80574 2.6612 18.1875 2.890625 L 18.1875 22.109375 C 17.169206 22.722675 15.85386 22.587487 14.980469 21.679688 L 10.681641 17.210938 L 8.7832031 17.210938 C 7.6978331 17.210938 6.8125 16.290409 6.8125 15.162109 L 6.8125 9.8359375 C 6.8125 8.7077375 7.6978331 7.7890625 8.7832031 7.7890625 L 10.681641 7.7890625 L 14.980469 3.3183594 C 15.526019 2.7512344 16.244363 2.4868711 16.955078 2.5175781 z "
       transform="translate(0,1027.3622)"
       id="rect4139" />
    <path
       style="fill:none;fill-opacity:1;stroke:#ffffff;stroke-width:1.5;stroke-miterlimit:4;stroke-dasharray:none;stroke-opacity:1"
       d="m 18.187674,1030.2531 c -1.018026,-0.6118 -2.333715,-0.479 -3.206595,0.4284 l -4.299344,4.4691 -1.8988757,0 c -1.0853708,0 -1.9705331,0.9201 -1.9705331,2.0483 l 0,5.3258 c 0,1.1283 0.8851623,2.0484 1.9705331,2.0484 l 1.8988757,0 4.299344,4.4693 c 0.873391,0.9078 2.188301,1.0415 3.206595,0.4282 l 0,-19.2175 z"
       id="rect4574"
       inkscape:connector-curvature="0" />
  </g>
</svg>
